X: 2
T: Lucy Campbell
R: strathspey
M: 4/4
L: 1/8
K: Amix
f|"A"e<Ae>c e<Ae>c|e<Ae>c "Bm"f>BB>f|"A"e<Ae>c "Em"e>f{f}g>e|"F#m"a/g/f e>c "A"e<AA:|
|:f|"A"{f}a>fe>c "Em"e>f{f}g>e|"A"a/g/f e>c "Bm"f>BB>f|"A"{f}a>fe>c "Em"e>f{f}g>e|"F#m"a/g/f e>c "A"e<AA:|
|:B|"A"A>Bc>A c<ec>B|A>Bc>e "Bm"f>BB>c|"A"A>Bc>A c<ec>A|"F#m"a/g/f e>c "A"e<AA:|
|:f|"A"e<ac>a e<ac>a|e<ac>e "Bm"f>BB>f|"A"e<ac>a "Em"e>f{f}g>e|"F#m"a/g/f e>c "A"e<AA:|
|:f|"A"e/e/A e>c e/e/A e>c|e/e/A e>c "Bm"f>BB>f|"A"e/e/A e>c "Em"e>f{f}g>e|"F#m"a/g/f e>c "A"e<AA:|
|:f|"A"a/a/f e>c "Em"e>f{f}g>e|"A"a/g/f e>c "Bm"f>BB>f|"A"a/a/f e>c "Em"e>f{f}g>e|"F#m"a/g/f e>c "A"e<AA:|
|:B|"A"A/A/B c>A c<e{cd}c>B|A/A/B c>e "Bm"f>BB>c|"A"A/A/B c>A c<e{cd}c>A|"F#m"a/g/f e>c "A"e<AA:|
|:f|"A"e/e/a c>a e/e/a c>a|e/e/a c>e "Bm"f>BB>f|"A"e/e/a c>a "Em"e>f{f}g>e|"F#m"a/g/f e>c "A"e<AA:|

